X:75
T:Green Hills of Tyrol
S:John Moore's Book 2
Z:Transcribed by Peter Kanssen 2-05-21
%%VWML: Moore1-4494-p58-0
F:http://www.vwml.org/record/Moore2/4494/p58
M:3/4
K:G
L:1/8
(DG)A | B2 BGBc | d2deBe | dcAFAe |
 dBGDGA | B2BGBc | d2deB2 | dcADFA | G3:|%last G isn't dotted in the MS, but context suggests it, same for following G
|:G3| Lg4 fe | eddz d2 | dccz d2 | cBBz G2 | 
g4fe | eddz e2 | d^ccz BA | d2dAfA | 
e2eA^cA | d2dAfA | e2eA^cA | (3de[cB] (3e[dc]e  | 
N:as per MS - possibly a later correction. The lower not of the two in each case looks added
(3cdB (3dAd | G2zDGA | B2BGBc | d2dAfA | 
dcAFAe | dBGDGA | B2BGBc | d2deBe |
 dcADFA | d3FGA | B2BFdF | B2BcBA | 

